X:1
T:Title
%%score { 1 | ( 2 3 ) }
L:1/8
M:4/4
K:Bb
V:1 treble nm="Grand Piano"
V:2 bass 
V:3 bass 
V:1
 z4 z2[Q:1/4=100] [B,D]2 | [DF]3 [DF] [FB]3 [^FA] | [Gc][GB][FA][EG] [DF]2 [DB][DB] | A3 B cAGF | %4
 [DB]2 c2 d3 D | [DF]3 [DF] [FB]3 [^FA] | [Gc][B,GB][B,FA][B,EG] [B,DF]2 [DFB]2 | %7
 [CFA]2 [=B,F_A][CF=A] [D=EB]2 [EB]2 |[M:9/8] [=EB][EB][FA] [EB] [_Ec]2 _d3 | %9
[M:3/4] [Fd]2 [Ec]3 [EF] | [Ec]2 [DB]4 | [Ec]2 [DB]3 [D^F] | A2 G4 | [Ge]2 [Gd]3 [Gc] | d2 B2 B2 | %15
 [FA]2 [FA]2 (3[B,=E-G][EA][EB] | [Ec]4 _d2 | [Fd]2 [Ec]3 [EF] | [Ec]2 [DB]4 | [Ec]2 [DB]3 [D^F] | %20
 A2 G4 | [Ge]2 [DGd]3 [EGc] |[M:15/16] [Ff]->[Ff][Fd]- [Fd]3- [Fd]/[Gd] | %23
[M:3/4] (3[G-e][Gd][Gc] [Bf]3 [Af] | [FB]4 z2 |] %25
V:2
 z4 z2 [B,,F,]2 | [B,,B,]3 [B,,B,] [D,B,]3 [D,B,] | %2
 [E,B,][E,B,][E,B,][E,B,] [B,,B,]2 [B,,F,][B,,F,] | [F,E]3 [F,G,E] [F,A,E][F,CE][F,B,E][F,A,E] | %4
 [B,,B,]2[K:treble] [F,A,F]2 [B,F]3[K:bass] [B,,F,B,] | [B,,B,]3 [B,,B,] [D,B,]3 [D,B,] | %6
 [E,B,]E,E,E, B,,2 B,,2 | C,2 C,C, C,2 [C,G,]2 |[M:9/8] [C,C][C,C][C,C] .[C,G,]3 =E3 | %9
[M:3/4] [B,,B,]2 [B,,B,]3 [B,,B,] | [B,,A,]2 [B,,B,]4 | [B,,B,]2 [B,,B,]3 [B,,B,] | [E,B,E]6 | %13
 [C,C]2 [D,=B,]3 [E,C] | [F,B,D]2 [G,B,D]2 [G,B,D]2 | [C,C]2 [C,C]2 (3C,-[C,A,][C,G,] | z2 z2 =E2 | %17
 [B,,B,]2 [B,,B,]3 [B,,B,] | [B,,A,]2 [B,,B,]4 | [B,,B,]2 [B,,B,]3 [B,,B,] | [E,B,E]6 | %21
 [C,C]2 =B,,3 C, |[M:15/16] [D,B,]->[D,B,][G,=B,]- [G,B,]3- [G,B,]/[G,B,] | %23
[M:3/4] (3[C,C][D,=B,][E,C] [F,D]3 [F,E] | [B,D]4 z2 |] %25
V:3
 x8 | x8 | x8 | x8 | x2[K:treble] x5[K:bass] x | x8 | x8 | x8 |[M:9/8] z3 z F,2- F,3 |[M:3/4] x6 | %10
 x6 | x6 | x6 | x6 | x6 | x6 | F,6 | x6 | x6 | x6 | x6 | x6 |[M:15/16] x15/2 |[M:3/4] x6 | x6 |] %25

